src/assets/svg/ic_picture.svg

<svg xmlns="http://www.w3.org/2000/svg" width="16" height="16">
    <g fill="#3d464d">
        <path d="M0 2v12h16V2H0zm1 9.965v-.005c.055-.017.075-.022 0 .005zm11.709-1.894c-.777.08-2.658.518-3.612.768-.412.098-.966.164-1.871.097-.315-.049-.702-.097-1.053-.192-.089-.068-.173-.181-.173-.39V9.019c.254-.065.473-.194.639-.388a.517.517 0 00.498.321c.263 0 .471-.161.521-.37.007 0 .014.004.021.004.479 0 .866-.329.866-.734a.646.646 0 00-.169-.412c.231-.168.386-.409.386-.688 0-.506-.484-.916-1.083-.916l-.021.003c-.053-.31-.355-.553-.738-.553-.051 0-.096.018-.145.025-.271-.345-.735-.575-1.263-.575-.57 0-1.061.27-1.319.663a1.342 1.342 0 00-.523-.113c-.658 0-1.191.451-1.191 1.009 0 .187.076.352.181.501-.234.084-.398.279-.398.508 0 .238.182.436.434.512a.675.675 0 00-.083.296c0 .509.562.92 1.258.92.377 0 .705-.127.936-.318.054.055.129.087.193.131v1.414c0 .285-.361.461-.449.5-1.36.24-2.744.633-3.551 1.157V3h14v7.131c-.52-.127-1.337-.157-2.291-.06z"/>
        <circle cx="12" cy="6.5" r="1.292"/>
    </g>
</svg>

<?xml version="1.0" encoding="iso-8859-1"?>
<!-- Generator: Adobe Illustrator 16.0.4, SVG Export Plug-In . SVG Version: 6.00 Build 0)  -->
<!DOCTYPE svg PUBLIC "-//W3C//DTD SVG 1.1//EN" "http://www.w3.org/Graphics/SVG/1.1/DTD/svg11.dtd">
<svg version="1.1" id="artwork" xmlns="http://www.w3.org/2000/svg" xmlns:xlink="http://www.w3.org/1999/xlink" x="0px" y="0px"
	 width="16px" height="16px" viewBox="0 0 16 16" style="enable-background:new 0 0 16 16;" xml:space="preserve">
<g>
	<path style="fill:#3D464D;" d="M0,2v12h16V2H0z M1,11.965V11.96C1.055,11.943,1.075,11.938,1,11.965z M12.709,10.071
		c-0.777,0.08-2.658,0.518-3.612,0.768c-0.412,0.098-0.966,0.164-1.871,0.097c-0.315-0.049-0.702-0.097-1.053-0.192
		C6.084,10.676,6,10.563,6,10.354c0-0.301,0-0.94,0-1.335c0.254-0.065,0.473-0.194,0.639-0.388c0.068,0.184,0.258,0.321,0.498,0.321
		c0.263,0,0.471-0.161,0.521-0.37c0.007,0,0.014,0.004,0.021,0.004c0.479,0,0.866-0.329,0.866-0.734c0-0.156-0.07-0.293-0.169-0.412
		c0.231-0.168,0.386-0.409,0.386-0.688c0-0.506-0.484-0.916-1.083-0.916c-0.007,0-0.014,0.003-0.021,0.003
		C7.605,5.529,7.303,5.286,6.92,5.286c-0.051,0-0.096,0.018-0.145,0.025C6.504,4.966,6.04,4.736,5.512,4.736
		c-0.57,0-1.061,0.27-1.319,0.663C4.033,5.332,3.86,5.286,3.67,5.286c-0.658,0-1.191,0.451-1.191,1.009
		c0,0.187,0.076,0.352,0.181,0.501C2.426,6.88,2.262,7.075,2.262,7.304c0,0.238,0.182,0.436,0.434,0.512
		C2.65,7.91,2.613,8.007,2.613,8.112c0,0.509,0.562,0.92,1.258,0.92c0.377,0,0.705-0.127,0.936-0.318
		C4.861,8.769,4.936,8.801,5,8.845c0,0.435,0,1.188,0,1.414c0,0.285-0.361,0.461-0.449,0.5C3.191,10.999,1.807,11.392,1,11.916V3h14
		v7.131C14.48,10.004,13.663,9.974,12.709,10.071z"/>
	<circle style="fill:#3D464D;" cx="12" cy="6.5" r="1.292"/>
</g>
</svg>
